map-marker-radius.svg

<svg fill="currentColor" viewBox="0 0 24 24"><path d="M12 2c3.31 0 6 2.66 6 5.95C18 12.41 12 19 12 19S6 12.41 6 7.95C6 4.66 8.69 2 12 2m0 4a2 2 0 0 0-2 2 2 2 0 0 0 2 2 2 2 0 0 0 2-2 2 2 0 0 0-2-2m8 13c0 2.21-3.58 4-8 4s-8-1.79-8-4c0-1.29 1.22-2.44 3.11-3.17l.64.91C6.67 17.19 6 17.81 6 18.5c0 1.38 2.69 2.5 6 2.5s6-1.12 6-2.5c0-.69-.67-1.31-1.75-1.76l.64-.91C18.78 16.56 20 17.71 20 19"/></svg>

<svg  viewBox="0 0 24 24" fill="currentColor"><path  d="M12,2C15.31,2 18,4.66 18,7.95C18,12.41 12,19 12,19C12,19 6,12.41 6,7.95C6,4.66 8.69,2 12,2M12,6A2,2 0 0,0 10,8A2,2 0 0,0 12,10A2,2 0 0,0 14,8A2,2 0 0,0 12,6M20,19C20,21.21 16.42,23 12,23C7.58,23 4,21.21 4,19C4,17.71 5.22,16.56 7.11,15.83L7.75,16.74C6.67,17.19 6,17.81 6,18.5C6,19.88 8.69,21 12,21C15.31,21 18,19.88 18,18.5C18,17.81 17.33,17.19 16.25,16.74L16.89,15.83C18.78,16.56 20,17.71 20,19Z"/></svg>
